X:1
T:Title
%%score ( 1 2 ) ( 3 4 )
L:1/8
Q:1/4=100
M:9/8
K:C
V:1 treble nm="Grand Piano, Soprano"
V:2 treble 
V:3 bass nm="Choir Pad, Mont Blanc, Adam Geibel"
V:4 bass 
V:1
 [CE]C[CE] [EG]3 [EG]3 | [_EA][EG][E^F] [=EG]6 | [EG][EA][DB] [Cc]3 [Ec]3 | [^FA][Fd][Fc] [GB]6 | %4
w: By~Adam~Geibel,~1901 * * * *||||
 [GB][GA][GB] [Gc]3 [CG]3 | [CF][CE][A,D] [B,E]6 | [B,E][CE][DE] [Cc]3 [EA]3 | %7
w: |||
 [^FA][FB][Fc] [=Fd]6 | z3 e3 e3 | z3 c6 | z3 c3 c3 | z3 A6 | z3 c3 c3 | z3 e6 | z3 f3 A3 | %15
w: ||||||||
 z3 c6- | c6 z3 |] %17
w: ||
V:2
 x9 | x9 | x9 | x9 | x9 | x9 | x9 | x9 | GGG EEE E2 E | [Fd][Fc][FA] EEF .E3 | EEE EEE E2 E | %11
 [Dc][DB][DE] CCD .C3 | [FB][FA][FB] E2 E E2 E | [Ad][Ac][Ad] ^G2 G .G3 | [Ge][Gd][Ge] F2 F F2 F | %15
 [FB][FA][FG] E2 F E3- | E6 z3 |] %17
V:3
 [C,G,][C,E,][C,G,] [C,C]3 [C,G,]3 | [C,^F,][C,G,][C,A,] [C,G,]6 | %2
 [C,G,][C,G,][C,G,] [A,,E,]3 [A,,A,]3 | [D,A,][D,A,][D,D] [G,D]6 | [F,D][F,D][F,D] [E,C]3 [E,C]3 | %5
 [D,A,][E,A,][F,A,] [E,^G,]6 | [E,^G,][E,A,][E,B,] [A,,A,]3 [C,A,]3 | [D,C][D,B,][D,A,] [G,B,]6 | %8
 z3 [C,G,][C,G,][C,G,] [C,G,]2 [C,G,] | [F,A,][F,A,][F,A,] G,G,A, .G,3 | %10
 z3 [A,,A,][A,,A,][A,,A,] [A,,A,]2 [A,,A,] | [E,^G,][E,G,][E,G,] A,E,F, .E,3 | %12
 [G,D][G,C][G,D] [C,C]2 [C,G,] [C,G,]2 [C,G,] | [F,A,][F,A,][F,A,] [E,B,]2 [E,B,] .[E,B,]3 | %14
 [A,^C][A,B,][A,C] [D,D]2 [D,D] [D,D]2 [D,D] | [G,D][G,C][G,B,] C2 A, G,3- | G,6 z3 |] %17
V:4
 x9 | x9 | x9 | x9 | x9 | x9 | x9 | x9 | x9 | z3 C,6 | x9 | z3 A,,6 | x9 | x9 | x9 | z3 C,6- | %16
 C,6 z3 |] %17

